icons/svg/sport/table_tennis.svg

<?xml version="1.0" encoding="UTF-8" standalone="no"?>
<!-- Created with Inkscape (http://www.inkscape.org/) -->

<svg
   xmlns:dc="http://purl.org/dc/elements/1.1/"
   xmlns:cc="http://creativecommons.org/ns#"
   xmlns:rdf="http://www.w3.org/1999/02/22-rdf-syntax-ns#"
   xmlns:svg="http://www.w3.org/2000/svg"
   xmlns="http://www.w3.org/2000/svg"
   xmlns:sodipodi="http://sodipodi.sourceforge.net/DTD/sodipodi-0.dtd"
   xmlns:inkscape="http://www.inkscape.org/namespaces/inkscape"
   version="1.0"
   width="580"
   height="580"
   id="svg2"
   sodipodi:version="0.32"
   inkscape:version="0.48.4 r9939"
   sodipodi:docname="rugby_league.svg"
   inkscape:output_extension="org.inkscape.output.svg.inkscape">
  <metadata
     id="metadata2975">
    <rdf:RDF>
      <cc:Work
         rdf:about="">
        <dc:format>image/svg+xml</dc:format>
        <dc:type
           rdf:resource="http://purl.org/dc/dcmitype/StillImage" />
        <cc:license
           rdf:resource="http://web.resource.org/cc/PublicDomain" />
        <dc:language>en</dc:language>
        <dc:title></dc:title>
      </cc:Work>
    </rdf:RDF>
  </metadata>
  <sodipodi:namedview
     inkscape:window-height="1004"
     inkscape:window-width="1920"
     inkscape:pageshadow="2"
     inkscape:pageopacity="0.0"
     guidetolerance="10.0"
     gridtolerance="10.0"
     objecttolerance="10.0"
     borderopacity="1.0"
     bordercolor="#666666"
     pagecolor="#ffffff"
     id="base"
     inkscape:zoom="0.46083856"
     inkscape:cx="25.9865"
     inkscape:cy="409.7652"
     inkscape:window-x="1680"
     inkscape:window-y="0"
     inkscape:current-layer="svg2"
     showgrid="false"
     inkscape:window-maximized="1" />
  <defs
     id="defs4">
    <inkscape:perspective
       sodipodi:type="inkscape:persp3d"
       inkscape:vp_x="0 : 290 : 1"
       inkscape:vp_y="0 : 1000 : 0"
       inkscape:vp_z="580 : 290 : 1"
       inkscape:persp3d-origin="290 : 193.33333 : 1"
       id="perspective10" />
  </defs>
  <g
     id="g1327">
    <path
       d="M 66.275,1.768 C 24.94,1.768 1.704,23.139 1.704,66.804 l 0,450.123 c 0,40.844 20.895,62.229 62.192,62.229 l 452.024,0 c 41.307,0 62.229,-20.315 62.229,-62.229 l 0,-450.123 c 0,-42.601 -20.922,-65.036 -63.521,-65.036 -0.004,0 -448.495,-0.143 -448.353,0 z"
       style="fill:#111111;stroke:#eeeeee;stroke-width:3.40799999"
       id="path1329"
       inkscape:connector-curvature="0" />
  </g>
  <circle
     transform="matrix(22.846513,0,0,22.846513,15.98992,16.536667)"
     sodipodi:ry="2"
     sodipodi:rx="2"
     sodipodi:cy="4"
     sodipodi:cx="4"
     cx="4"
     cy="4"
     r="2"
     id="circle3"
     style="fill:#ffffff;fill-opacity:1" />
  <path
     inkscape:connector-curvature="0"
     d="m 146.21505,258.70971 175.91816,175.91815 c -20.56187,0 -43.40838,-4.56931 -63.97024,-11.42326 -9.13861,-2.28464 -41.12373,-6.85395 -54.83164,4.56931 -29.70047,29.70046 -54.83163,68.53954 -68.53953,82.24745 -13.70791,13.7079 -34.26977,9.1386 -54.831642,-11.42327 -18.277204,-18.2772 -25.131164,-41.12372 -11.423254,-54.83163 15.992558,-11.42325 54.831636,-38.83907 84.532096,-66.25488 13.70791,-13.70791 6.85396,-50.26233 4.56931,-54.83163 -9.13861,-20.56186 -11.42326,-43.40838 -11.42326,-63.97024 z M 466.06624,114.77668 C 381.53414,27.959921 267.30157,59.945035 196.47738,128.48458 171.34622,153.61574 153.069,185.60086 148.4997,219.87064 l 212.47257,212.47257 c 34.26977,-6.85395 66.2549,-22.84652 91.38606,-47.97768 68.53954,-70.82419 100.52466,-185.05676 13.70791,-269.58885 z"
     id="path5"
     style="fill:#ffffff;fill-opacity:1" />
</svg>

<svg width="580" height="580" viewBox="0 0 580 580" fill="none" xmlns="http://www.w3.org/2000/svg">
<g clip-path="url(#clip0)">
<path d="M66.2751 1.76815C24.9401 1.76815 1.7041 23.1391 1.7041 66.8041V516.927C1.7041 557.771 22.5991 579.156 63.8961 579.156H515.92C557.227 579.156 578.149 558.841 578.149 516.927V66.8041C578.149 24.2031 557.227 1.76815 514.628 1.76815C514.624 1.76815 66.1331 1.62515 66.2751 1.76815V1.76815Z" fill="#111111" stroke="#EEEEEE" stroke-width="3.408"/>
<path d="M107.376 153.616C132.612 153.616 153.069 133.158 153.069 107.923C153.069 82.687 132.612 62.2295 107.376 62.2295C82.1406 62.2295 61.6831 82.687 61.6831 107.923C61.6831 133.158 82.1406 153.616 107.376 153.616Z" fill="white"/>
<path d="M146.215 258.71L322.133 434.628C301.572 434.628 278.725 430.059 258.163 423.205C249.025 420.92 217.039 416.351 203.332 427.774C173.631 457.474 148.5 496.313 134.792 510.021C121.084 523.729 100.522 519.16 79.9603 498.598C61.6831 480.321 54.8292 457.474 68.5371 443.766C84.5296 432.343 123.369 404.927 153.069 377.512C166.777 363.804 159.923 327.249 157.638 322.68C148.5 302.118 146.215 279.272 146.215 258.71V258.71ZM466.066 114.777C381.534 27.96 267.302 59.9451 196.478 128.485C171.346 153.616 153.069 185.601 148.5 219.871L360.972 432.343C395.242 425.489 427.227 409.497 452.359 384.366C520.898 313.541 552.883 199.309 466.066 114.777Z" fill="white"/>
</g>
<defs>
<clipPath id="clip0">
<path d="M0 0H580V580H0V0Z" fill="white"/>
</clipPath>
</defs>
</svg>
